usr/share/icons/biglinux-icons-material/24/actions/draw-spiral.svg

<svg xmlns="http://www.w3.org/2000/svg" viewBox="0 0 24 24">
  <defs id="defs3051">
    <style type="text/css" id="current-color-scheme">
      .ColorScheme-Text {
        color:#363636;
      }
      </style>
  </defs>
 <path style="fill:currentColor;fill-opacity:1;stroke:none" 
     d="M 12.037109 4.0019531 C 7.9387129 4.0971661 4.5322344 7.5834093 4.6328125 11.724609 C 4.6520807 12.51798 4.8060941 13.282255 5.0644531 14 L 6.1875 13.632812 C 5.9659787 13.031224 5.8313418 12.390553 5.8105469 11.724609 C 5.7011585 8.2215539 8.5755747 5.2659169 12.037109 5.1640625 C 15.686754 5.0566686 18.761794 8.0817758 18.861328 11.724609 C 18.965917 15.552722 15.823099 18.776708 12.037109 18.875 C 8.8644045 18.957379 6.0964906 16.867092 5.0644531 14 L 4 14.347656 C 5.171463 17.736488 8.4591787 20.073215 12.037109 19.998047 C 16.437548 19.905547 20.095185 16.168588 19.998047 11.724609 C 19.904687 7.4535404 16.310337 3.9026874 12.037109 4.0019531 z M 6.1875 13.632812 C 7.0670094 16.021312 9.3855552 17.758 12.037109 17.667969 C 15.159867 17.561948 17.748075 14.888412 17.632812 11.724609 C 17.524934 8.7633459 15.010746 6.3084162 12.037109 6.4277344 C 9.2705405 6.5387433 6.9788424 8.9173124 7.1015625 11.724609 C 7.1246175 12.251953 7.2531305 12.75155 7.4355469 13.226562 L 8.8320312 12.771484 C 8.6933049 12.441843 8.5932334 12.092801 8.5664062 11.724609 C 8.4190806 9.7026009 10.056162 7.9725667 12.037109 7.8476562 C 14.256166 7.7077348 16.147389 9.5251482 16.267578 11.724609 C 16.400318 14.153666 14.425484 16.218808 12.037109 16.335938 C 9.9589418 16.437856 8.1500895 15.087235 7.4355469 13.226562 L 6.1875 13.632812 z M 8.8320312 12.771484 C 9.3606101 14.027493 10.614897 14.924373 12.037109 14.798828 C 13.568418 14.663646 14.830165 13.298069 14.658203 11.724609 C 14.517314 10.435498 13.356679 9.3683608 12.037109 9.5625 C 11.026995 9.7111156 10.179873 10.67107 10.410156 11.724609 C 10.445836 11.887832 10.51673 12.046453 10.609375 12.191406 L 12.037109 11.724609 C 12.731715 11.724609 12.470487 12.545042 12.037109 12.736328 C 11.479339 12.982515 10.913031 12.666508 10.609375 12.191406 L 8.8320312 12.771484 z "
     class="ColorScheme-Text"
     />
</svg>

<svg xmlns="http://www.w3.org/2000/svg" viewBox="0 0 24 24"><path d="M12.037 4.002c-4.098.095-7.505 3.581-7.404 7.723.02.793.173 1.557.431 2.275l1.123-.367a6.061 6.061 0 0 1-.376-1.908c-.11-3.503 2.765-6.46 6.226-6.56 3.65-.108 6.725 2.917 6.824 6.56.105 3.828-3.038 7.052-6.824 7.15-3.173.082-5.94-2.008-6.973-4.875L4 14.348c1.171 3.388 4.46 5.725 8.037 5.65 4.4-.092 8.058-3.83 7.961-8.273-.093-4.271-3.688-7.822-7.96-7.723zm-5.85 9.63c.88 2.39 3.199 4.126 5.85 4.036 3.123-.106 5.711-2.78 5.596-5.943-.108-2.962-2.622-5.417-5.596-5.297-2.766.11-5.058 2.49-4.935 5.297.023.527.151 1.027.334 1.502l1.396-.456a3.319 3.319 0 0 1-.266-1.046c-.147-2.022 1.49-3.752 3.471-3.877 2.22-.14 4.11 1.677 4.23 3.877.133 2.429-1.842 4.494-4.23 4.61-2.078.103-3.887-1.248-4.601-3.108l-1.248.406zm2.645-.86c.529 1.255 1.783 2.152 3.205 2.027 1.531-.135 2.793-1.5 2.621-3.074-.14-1.29-1.301-2.357-2.62-2.162-1.011.148-1.858 1.108-1.628 2.162.036.163.107.321.2.466l1.427-.466c.695 0 .433.82 0 1.011-.558.247-1.124-.07-1.428-.545l-1.777.58z" style="fill:currentColor;fill-opacity:1;stroke:none;color:#dedede"/></svg>
